public/lightmess.svg

<svg width="100" height="100" viewBox="0 0 100 100" fill="none" xmlns="http://www.w3.org/2000/svg">
<path fill-rule="evenodd" clip-rule="evenodd" d="M50 0C21.8311 0 0 20.634 0 48.5016C0 63.0793 5.97578 75.675 15.7043 84.3774C16.5191 85.1118 17.0121 86.1278 17.0523 87.2245L17.324 96.118C17.4145 98.955 20.342 100.796 22.9377 99.6593L32.8572 95.2828C33.7021 94.9108 34.6379 94.8403 35.523 95.0817C40.0805 96.3393 44.9396 97.0034 50 97.0034C78.1689 97.0034 100 76.3691 100 48.5016C100 20.634 78.1689 0 50 0ZM19.9799 62.6869L34.668 39.3868C37.002 35.6846 42.0121 34.759 45.5131 37.3848L57.1932 46.1475C58.2695 46.9523 59.7385 46.9422 60.8049 46.1375L76.5795 34.1655C78.682 32.5658 81.4387 35.0911 80.0201 37.3245L65.342 60.6144C63.008 64.3168 57.998 65.2422 54.4971 62.6166L42.817 53.8538C41.7404 53.0489 40.2717 53.0591 39.2053 53.864L23.4205 65.8459C21.318 67.4456 18.5613 64.9203 19.9799 62.6869Z" fill="#17A68C"/>
</svg>

<svg xmlns="http://www.w3.org/2000/svg" width="100" height="100" fill="none" xmlns:v="https://vecta.io/nano"><path fill-rule="evenodd" d="M50 0C21.831 0 0 20.634 0 48.502c0 14.578 5.976 27.173 15.704 35.876.815.734 1.308 1.75 1.348 2.847l.272 8.893a4.01 4.01 0 0 0 5.614 3.541l9.92-4.377a3.99 3.99 0 0 1 2.666-.201c4.557 1.258 9.417 1.922 14.477 1.922 28.169 0 50-20.634 50-48.502S78.169 0 50 0zM19.98 62.687l14.688-23.3a7.51 7.51 0 0 1 10.845-2.002l11.68 8.763c1.076.805 2.545.795 3.612-.01L76.58 34.166c2.103-1.6 4.859.926 3.441 3.159l-14.678 23.29a7.51 7.51 0 0 1-10.845 2.002l-11.68-8.763c-1.077-.805-2.545-.795-3.612.01L23.421 65.846c-2.102 1.6-4.859-.926-3.441-3.159z" fill="#17a68c"/></svg>
